www/assets/icons/timelapse.svg

<svg xmlns="http://www.w3.org/2000/svg" width="24" height="24" viewBox="0 0 24 24" fill='currentColor'><path d="M16.24 7.76A5.97 5.97 0 0 0 12 6v6l-4.24 4.24c2.34 2.34 6.14 2.34 8.49 0a5.99 5.99 0 0 0-.01-8.48M12 2C6.48 2 2 6.48 2 12s4.48 10 10 10 10-4.48 10-10S17.52 2 12 2m0 18c-4.42 0-8-3.58-8-8s3.58-8 8-8 8 3.58 8 8-3.58 8-8 8"/></svg>

<svg width="24" height="24" viewBox="0 0 24 24" xmlns="http://www.w3.org/2000/svg" fill='currentColor'><path d="M16.24 7.76C15.07 6.59 13.54 6 12 6V12L7.76 16.24C10.1 18.58 13.9 18.58 16.25 16.24C18.59 13.9 18.59 10.1 16.24 7.76ZM12 2C6.48 2 2 6.48 2 12C2 17.52 6.48 22 12 22C17.52 22 22 17.52 22 12C22 6.48 17.52 2 12 2ZM12 20C7.58 20 4 16.42 4 12C4 7.58 7.58 4 12 4C16.42 4 20 7.58 20 12C20 16.42 16.42 20 12 20Z"/></svg>
